src/img/biometria.svg

<svg width="57" height="57" viewBox="0 0 57 57" fill="none" xmlns="http://www.w3.org/2000/svg">
<path d="M18 18.6934C17.9727 18.9121 17.877 19.1035 17.7129 19.2676C17.5488 19.4316 17.3574 19.5137 17.1387 19.5137C16.8652 19.5137 16.6465 19.418 16.4824 19.2266C16.3184 19.0352 16.2363 18.8027 16.2363 18.5293C16.373 17.1895 16.7285 15.9453 17.3027 14.7969C17.9043 13.6211 18.6699 12.6094 19.5996 11.7617C20.5293 10.9141 21.6094 10.2441 22.8398 9.75195C24.043 9.25977 25.3281 9.01367 26.6953 9.01367C28.0625 9.01367 29.3613 9.25977 30.5918 9.75195C31.8223 10.2441 32.9023 10.9277 33.832 11.8027C34.7891 12.6504 35.5684 13.6484 36.1699 14.7969C36.7715 15.9727 37.127 17.2305 37.2363 18.5703C37.2637 18.8164 37.1816 19.0352 36.9902 19.2266C36.8262 19.418 36.6211 19.5137 36.375 19.5137C36.1562 19.5137 35.9512 19.4316 35.7598 19.2676C35.5957 19.1035 35.5137 18.9121 35.5137 18.6934C35.4043 17.6816 35.1309 16.7246 34.6934 15.8223C34.2832 14.8926 33.709 14.0586 32.9707 13.3203C32.1504 12.5 31.1934 11.8711 30.0996 11.4336C29.0059 10.9687 27.8711 10.7363 26.6953 10.7363C25.5469 10.7363 24.4395 10.9687 23.373 11.4336C22.3066 11.8711 21.3633 12.5 20.543 13.3203C19.8047 14.0586 19.2168 14.8926 18.7793 15.8223C18.3418 16.7246 18.082 17.6816 18 18.6934ZM40.7637 29.1523V33.377C40.7637 34.0605 40.6953 34.7441 40.5586 35.4277C40.4219 36.084 40.2168 36.7402 39.9434 37.3965C39.6699 38.0254 39.3418 38.627 38.959 39.2012C38.6035 39.7754 38.1797 40.3086 37.6875 40.8008L37.2363 41.2109V43.918C37.2363 44.3828 37.0723 44.7793 36.7441 45.1074C36.416 45.4629 36.0059 45.6406 35.5137 45.6406L26.7773 45.7637C26.7773 45.7637 26.7637 45.7637 26.7363 45.7637C26.5176 45.7637 26.2988 45.709 26.0801 45.5996C25.8613 45.5176 25.6699 45.3945 25.5059 45.2305C25.3418 45.0664 25.2188 44.875 25.1367 44.6562C25.0547 44.4375 25.0137 44.2188 25.0137 44V41.2109L24.3574 40.5137C23.8926 40.0215 23.4824 39.502 23.127 38.9551C22.7715 38.3809 22.4707 37.793 22.2246 37.1914C21.9785 36.5625 21.7871 35.9336 21.6504 35.3047C21.541 34.6484 21.4863 33.9785 21.4863 33.2949V32.8027C21.4863 32.2832 21.5547 31.7773 21.6914 31.2852C21.8555 30.793 22.0879 30.3281 22.3887 29.8906C22.5801 29.5898 22.7441 29.3438 22.8809 29.1523C23.0449 28.9336 23.168 28.7559 23.25 28.6191V19.5137C23.25 18.5293 23.5918 17.6953 24.2754 17.0117C24.959 16.3281 25.7793 15.9863 26.7363 15.9863C27.7207 15.9863 28.5547 16.3281 29.2383 17.0117C29.9219 17.6953 30.2637 18.5293 30.2637 19.5137V23.6973C30.5371 23.7246 30.9199 23.793 31.4121 23.9023C31.9043 24.0117 32.3281 24.2031 32.6836 24.4766C32.793 24.5586 32.8887 24.6406 32.9707 24.7227C33.0527 24.8047 33.1211 24.8867 33.1758 24.9688C33.2852 24.9688 33.3809 24.9688 33.4629 24.9688C33.5723 24.9414 33.668 24.9277 33.75 24.9277C33.7773 24.9277 33.8047 24.9277 33.832 24.9277C33.9688 24.9277 34.1465 24.9414 34.3652 24.9688C34.584 24.9961 34.8164 25.0371 35.0625 25.0918C35.3633 25.2012 35.6504 25.3516 35.9238 25.543C36.1973 25.707 36.4297 25.9121 36.6211 26.1582C36.7305 26.1309 36.8398 26.1172 36.9492 26.1172C37.0586 26.1172 37.1543 26.1172 37.2363 26.1172C37.2637 26.1172 37.2773 26.1172 37.2773 26.1172C37.2773 26.1172 37.291 26.1172 37.3184 26.1172C37.373 26.1172 37.5371 26.1309 37.8105 26.1582C38.084 26.1855 38.3984 26.2676 38.7539 26.4043C39 26.5137 39.2188 26.6367 39.4102 26.7734C39.6289 26.9102 39.8203 27.0742 39.9844 27.2656C40.2305 27.5117 40.4082 27.7988 40.5176 28.127C40.6543 28.4277 40.7363 28.7559 40.7637 29.1113C40.7637 29.1387 40.7637 29.1523 40.7637 29.1523ZM39 29.1523C38.9727 28.5234 38.6719 28.1543 38.0977 28.0449C37.5234 27.9355 37.2363 27.8809 37.2363 27.8809C36.9082 27.8809 36.5664 27.9492 36.2109 28.0859C35.8555 28.1953 35.623 28.373 35.5137 28.6191V27.8398C35.5137 27.7578 35.5 27.6758 35.4727 27.5938C35.4453 27.5117 35.4043 27.4297 35.3496 27.3477C35.1309 27.0469 34.8574 26.8691 34.5293 26.8145C34.2012 26.7324 33.9688 26.6914 33.832 26.6914C33.832 26.6914 33.8184 26.6914 33.791 26.6914C33.4355 26.6914 33.0801 26.7598 32.7246 26.8965C32.3691 27.0059 32.123 27.1973 31.9863 27.4707V26.6094C31.9863 26.4453 31.9453 26.3086 31.8633 26.1992C31.8086 26.0625 31.7266 25.9531 31.6172 25.8711C31.4531 25.7344 31.1934 25.6387 30.8379 25.584C30.4824 25.502 30.168 25.4609 29.8945 25.4609C29.8125 25.4609 29.7305 25.4609 29.6484 25.4609C29.5938 25.4609 29.5391 25.4746 29.4844 25.502C29.4844 25.502 29.3887 25.5293 29.1973 25.584C29.0059 25.6387 28.7734 25.7891 28.5 26.0352V19.5137C28.5 19.2676 28.459 19.0488 28.377 18.8574C28.2949 18.6387 28.1719 18.4473 28.0078 18.2832C27.8438 18.1191 27.6523 17.9961 27.4336 17.9141C27.2148 17.8047 26.9961 17.75 26.7773 17.75C26.5312 17.75 26.2988 17.8047 26.0801 17.9141C25.8887 17.9961 25.6973 18.1191 25.5059 18.2832C25.3418 18.4473 25.2188 18.6387 25.1367 18.8574C25.0547 19.0488 25.0137 19.2676 25.0137 19.5137V29.1523C24.959 29.2344 24.8086 29.4531 24.5625 29.8086C24.3164 30.1641 24.084 30.5195 23.8652 30.875C23.6738 31.1484 23.5234 31.4492 23.4141 31.7773C23.3047 32.1055 23.25 32.4473 23.25 32.8027V33.2949C23.25 34.416 23.4551 35.4961 23.8652 36.5352C24.2754 37.5742 24.8633 38.5039 25.6289 39.3242L26.7363 40.5137V44L35.5137 43.918V40.5137L36.416 39.5703C37.2363 38.75 37.8652 37.8066 38.3027 36.7402C38.7676 35.6465 39 34.5254 39 33.377V29.1523Z" fill="#56504C"/>
</svg>

<svg width="57" height="57" fill="none" xmlns="http://www.w3.org/2000/svg"><path d="M18 18.693a.963.963 0 01-.287.575.787.787 0 01-.574.246.821.821 0 01-.657-.287 1.035 1.035 0 01-.246-.698 10.7 10.7 0 011.067-3.732 10.592 10.592 0 012.297-3.035c.93-.848 2.01-1.518 3.24-2.01a10.084 10.084 0 013.855-.738c1.367 0 2.666.246 3.897.738a10.21 10.21 0 013.24 2.05 10.423 10.423 0 012.338 2.995 9.985 9.985 0 011.066 3.773c.028.246-.054.465-.246.657a.777.777 0 01-.615.287.93.93 0 01-.615-.246.787.787 0 01-.246-.575 8.665 8.665 0 00-.82-2.87 8.191 8.191 0 00-1.723-2.503 8.457 8.457 0 00-2.871-1.886 8.618 8.618 0 00-3.405-.698 8.23 8.23 0 00-3.322.698 8.56 8.56 0 00-2.83 1.886 8.837 8.837 0 00-1.764 2.502A8.005 8.005 0 0018 18.693zm22.764 10.46v4.224c0 .683-.069 1.367-.205 2.05a10.891 10.891 0 01-.616 1.97 11.52 11.52 0 01-.984 1.804 8.836 8.836 0 01-1.272 1.6l-.45.41v2.707c0 .465-.165.861-.493 1.19a1.605 1.605 0 01-1.23.533l-8.737.123h-.04a1.46 1.46 0 01-.657-.164 1.594 1.594 0 01-.943-.944 1.858 1.858 0 01-.123-.656v-2.79l-.657-.696a10.996 10.996 0 01-1.23-1.559 11.927 11.927 0 01-.902-1.764 12.405 12.405 0 01-.575-1.886 12.203 12.203 0 01-.164-2.01v-.492c0-.52.069-1.026.205-1.518a5.55 5.55 0 01.698-1.394c.191-.301.355-.547.492-.739.164-.218.287-.396.369-.533v-9.105c0-.985.342-1.819 1.025-2.502.684-.684 1.504-1.026 2.461-1.026.985 0 1.819.342 2.502 1.026.684.683 1.026 1.517 1.026 2.502v4.183c.273.028.656.096 1.148.205a3.188 3.188 0 011.559.82c.082.083.15.165.205.247h.287c.11-.028.205-.041.287-.041h.082c.137 0 .315.013.533.04a8 8 0 01.697.124c.301.11.588.26.862.451.273.164.506.37.697.615a1.35 1.35 0 01.328-.04h.369c.055 0 .22.013.492.04.274.027.588.11.944.246.246.11.465.233.656.37.219.136.41.3.574.492.246.246.424.533.534.861.136.3.218.629.246.984v.041zm-1.764 0c-.027-.63-.328-.999-.902-1.108l-.862-.164c-.328 0-.67.068-1.025.205-.355.11-.588.287-.697.533v-.78a.775.775 0 00-.041-.245 1.035 1.035 0 00-.123-.246c-.22-.301-.493-.479-.82-.534-.329-.082-.561-.123-.698-.123h-.041c-.355 0-.71.069-1.066.206-.356.109-.602.3-.739.574v-.862a.66.66 0 00-.123-.41.746.746 0 00-.246-.328c-.164-.137-.424-.232-.78-.287a4.259 4.259 0 00-.942-.123h-.247a.363.363 0 00-.164.041l-.287.082c-.191.055-.424.205-.697.451v-6.521c0-.246-.041-.465-.123-.657a1.595 1.595 0 00-.943-.943 1.456 1.456 0 00-.657-.164c-.246 0-.478.055-.697.164a2.257 2.257 0 00-.574.37 1.595 1.595 0 00-.37.573c-.081.192-.122.41-.122.657v9.638c-.055.082-.205.301-.451.657-.247.355-.479.71-.698 1.066a3.483 3.483 0 00-.45.902c-.11.328-.165.67-.165 1.026v.492a8.75 8.75 0 00.615 3.24 8.777 8.777 0 001.764 2.79l1.107 1.189V44l8.778-.082v-3.404l.902-.944a8.56 8.56 0 001.887-2.83A8.52 8.52 0 0039 33.377v-4.225z" fill="#56504C"/></svg>
